icons/desktop/12/svg/pin-fill-12.svg

<svg width="12" height="12" viewBox="0 0 12 12" fill="none" xmlns="http://www.w3.org/2000/svg">
<path d="M9.11301 4.05799L7.26901 3.89599L6.11701 2.74399C6.25301 2.63999 6.38301 2.52799 6.52201 2.42899C6.80301 2.22699 6.86901 1.83799 6.66801 1.55799C6.46801 1.27599 6.07701 1.21099 5.79701 1.41199C4.37201 2.42799 3.12801 3.67199 2.11501 5.09399C1.91501 5.37399 1.98001 5.76499 2.26101 5.96499C2.51301 6.14499 2.85301 6.11099 3.06501 5.89899C3.08901 5.87499 3.11201 5.84799 3.13301 5.81899C3.23301 5.67899 3.34501 5.54799 3.45001 5.41199L4.60201 6.56399L4.76401 8.40799C4.83401 9.20699 5.77101 9.69199 6.38101 9.23599C6.84801 8.88599 7.33701 8.46799 7.82901 8.00999L9.63701 9.81799C9.88101 10.062 10.277 10.062 10.521 9.81799C10.765 9.57399 10.765 9.17799 10.521 8.93399L8.71501 7.12799C9.10501 6.71099 9.51001 6.25099 9.92501 5.69799C10.387 5.08199 9.92101 4.12899 9.11301 4.05799Z" fill="black"/>
<path d="M6.16003 1.29598C6.35503 1.29598 6.54803 1.38698 6.66903 1.55898C6.86903 1.83898 6.80403 2.22798 6.52303 2.42998C6.38303 2.52998 6.25303 2.64098 6.11803 2.74498L7.27003 3.89698L9.11403 4.05898C9.92203 4.12998 10.388 5.08198 9.92603 5.69798C9.51203 6.24998 9.10703 6.70998 8.71603 7.12798L10.522 8.93398C10.766 9.17798 10.766 9.57398 10.522 9.81798C10.4 9.93998 10.24 10.001 10.08 10.001C9.92003 10.001 9.76003 9.93998 9.63803 9.81798L7.83003 8.00998C7.33803 8.46798 6.85003 8.88698 6.38203 9.23598C6.22003 9.35698 6.03503 9.41198 5.84903 9.41198C5.33503 9.41198 4.81703 8.99398 4.76503 8.40798L4.60303 6.56398L3.45103 5.41198C3.34603 5.54798 3.23403 5.67898 3.13403 5.81898C3.11303 5.84798 3.09003 5.87498 3.06603 5.89898C2.94603 6.01898 2.78603 6.08198 2.62403 6.08198C2.49903 6.08198 2.37203 6.04398 2.26203 5.96598C1.98003 5.76598 1.91503 5.37498 2.11603 5.09498C3.12903 3.67298 4.37303 2.42898 5.79803 1.41298C5.90803 1.33498 6.03503 1.29698 6.16003 1.29698M6.16003 0.295983C5.82003 0.295983 5.49403 0.400983 5.21703 0.597983C3.69903 1.67998 2.38203 2.99798 1.30203 4.51298C1.05003 4.86598 0.95103 5.29598 1.02303 5.72498C1.09503 6.15398 1.33003 6.52798 1.68403 6.77998C1.95903 6.97698 2.28503 7.08098 2.62503 7.08098C2.92803 7.08098 3.21903 6.99898 3.47103 6.84498L3.63903 7.01298L3.76903 8.49498C3.86303 9.56998 4.77703 10.412 5.84903 10.412C6.26203 10.412 6.65303 10.282 6.98103 10.037C7.23803 9.84498 7.50903 9.62698 7.79103 9.38498L8.93003 10.524C9.23703 10.831 9.64503 11 10.079 11C10.513 11 10.921 10.831 11.228 10.524C11.535 10.217 11.704 9.80898 11.704 9.37498C11.704 8.94098 11.535 8.53298 11.228 8.22598L10.091 7.08898C10.29 6.85498 10.506 6.58998 10.725 6.29798C11.154 5.72698 11.229 4.98198 10.927 4.30498C10.614 3.60398 9.95303 3.12798 9.20003 3.06198L7.71903 2.93198L7.54803 2.76098C7.87403 2.22098 7.86903 1.51798 7.48203 0.975983C7.17903 0.549983 6.68403 0.294983 6.15903 0.294983L6.16003 0.295983Z" fill="white"/>
</svg>

<!-- This Source Code Form is subject to the terms of the Mozilla Public
   - License, v. 2.0. If a copy of the MPL was not distributed with this
   - file, You can obtain one at http://mozilla.org/MPL/2.0/. -->
<svg xmlns="http://www.w3.org/2000/svg" width="12" height="12" fill="context-fill" fill-opacity="context-fill-opacity" viewBox="0 0 12 12">
    <path d="m9.113 4.058-1.844-.162-1.152-1.152c.136-.104.266-.216.405-.315a.624.624 0 1 0-.725-1.017 15.7 15.7 0 0 0-3.682 3.682.625.625 0 1 0 1.018.725c.1-.14.212-.271.317-.407l1.152 1.152.162 1.844c.07.799 1.007 1.284 1.617.828.467-.35.956-.768 1.448-1.226l1.808 1.808a.625.625 0 0 0 .884-.884L8.715 7.128c.39-.417.795-.877 1.21-1.43.462-.616-.004-1.569-.812-1.64" />
    <path d="M6.16 1.296a.625.625 0 0 1 .363 1.134c-.14.1-.27.211-.405.315L7.27 3.897l1.844.162c.808.071 1.274 1.023.812 1.639a17 17 0 0 1-1.21 1.43l1.806 1.806a.625.625 0 0 1-.884.884L7.83 8.01c-.492.458-.98.877-1.448 1.226a.88.88 0 0 1-.533.176 1.12 1.12 0 0 1-1.084-1.004l-.162-1.844-1.152-1.152c-.105.136-.217.267-.317.407a.625.625 0 1 1-1.018-.724 15.7 15.7 0 0 1 3.682-3.682.63.63 0 0 1 .362-.116m0-1.001c-.34 0-.666.105-.943.302a16.7 16.7 0 0 0-3.915 3.915 1.61 1.61 0 0 0-.279 1.212c.072.429.307.803.661 1.055.275.197.601.301.941.301.303 0 .594-.082.846-.236l.168.168.13 1.482a2.11 2.11 0 0 0 2.08 1.917c.413 0 .804-.13 1.132-.375q.386-.289.81-.652l1.139 1.139c.307.307.715.476 1.149.476s.842-.169 1.149-.476.476-.715.476-1.149-.169-.842-.476-1.149l-1.137-1.137c.199-.234.415-.499.634-.791.429-.571.504-1.316.202-1.993A2.1 2.1 0 0 0 9.2 3.062l-1.481-.13-.171-.171A1.626 1.626 0 0 0 6.159.295z" />
</svg>
